icons/op-activity-history-24.svg

<svg width="24" height="24" viewBox="0 0 24 24" fill="none" xmlns="http://www.w3.org/2000/svg">
<path fill-rule="evenodd" clip-rule="evenodd" d="M12.5256 4.01761C14.657 4.17616 16.6003 5.15921 18.0108 6.77647C19.4213 8.39374 20.1109 10.455 19.9855 12.5796C19.672 16.7972 16.1615 20 11.9927 20H11.4286C9.07774 19.8097 6.915 18.6364 5.53586 16.7338L6.82097 15.7507C7.94936 17.2728 9.67328 18.1925 11.5226 18.3193C15.0331 18.573 18.1048 15.941 18.3243 12.4528C18.4496 10.7721 17.9168 9.1548 16.7884 7.85465C15.66 6.58621 14.1241 5.79343 12.4002 5.69829C10.2061 5.53974 8.07473 6.52278 6.78962 8.2986L7.82398 8.80598L4.47016 11.5014L4 6.87161L5.3478 7.53754C6.915 5.19092 9.64194 3.82734 12.5256 4.01761ZM11.294 12.7728C11.1128 12.659 11 12.4637 11 12.2402V9.61811C11 9.26378 11.2835 8.94488 11.6732 8.94488C12.0276 8.94488 12.311 9.26378 12.311 9.61811V11.906L15.3583 14.3307C15.6417 14.5787 15.6772 14.9685 15.4646 15.252C15.3228 15.4291 15.1457 15.5 14.9331 15.5C14.7913 15.5 14.6496 15.4646 14.5433 15.3583L11.294 12.7728Z" fill="black"/>
</svg>

<svg xmlns="http://www.w3.org/2000/svg" width="24" height="24" viewBox="0 0 24 24"><path d="M12.526 4.018a8.027 8.027 0 0 1 5.485 2.758 8.054 8.054 0 0 1 1.975 5.804A8.01 8.01 0 0 1 11.993 20h-.564c-2.351-.19-4.514-1.364-5.893-3.266l1.285-.983a6.387 6.387 0 0 0 4.702 2.568c3.51.254 6.582-2.378 6.801-5.866a6.22 6.22 0 0 0-1.536-4.598C15.66 6.586 14.124 5.793 12.4 5.698a6.365 6.365 0 0 0-5.61 2.601l1.034.507-3.354 2.695L4 6.872l1.348.666a7.989 7.989 0 0 1 7.178-3.52Zm-1.232 8.755A.623.623 0 0 1 11 12.24V9.618c0-.354.283-.673.673-.673.355 0 .638.319.638.673v2.288l3.047 2.425a.67.67 0 0 1 .107.921.639.639 0 0 1-.532.248.531.531 0 0 1-.39-.142Z"/></svg>
